static/logos/canva-wordmark-color.svg

<svg width="100" height="32" viewBox="0 0 100 32" fill="none" xmlns="http://www.w3.org/2000/svg">
<g clip-path="url(#clip0_1_3292)">
<path d="M99.3049 21.7783C99.1348 21.7783 98.9799 21.8876 98.9 22.1161C97.875 25.0223 96.4902 26.751 95.35 26.751C94.6951 26.751 94.4299 26.0257 94.4299 24.8881C94.4299 22.0416 96.1451 16.0059 97.0098 13.2538C97.1098 12.9209 97.175 12.6229 97.175 12.3696C97.175 11.5698 96.7348 11.1773 95.6451 11.1773C94.4701 11.1773 93.2049 11.6343 91.975 13.7754C91.55 11.8877 90.2652 11.063 88.4701 11.063C86.3951 11.063 84.3902 12.3894 82.7402 14.5404C81.0902 16.6914 79.15 17.3969 77.6902 17.0491C78.7402 14.4957 79.1299 12.5881 79.1299 11.1723C79.1299 8.95176 78.025 7.61049 76.2402 7.61049C73.525 7.61049 71.9598 10.1838 71.9598 12.8911C71.9598 14.9825 72.9152 17.1335 75.0152 18.1768C73.2549 22.131 70.6848 25.7078 69.7098 25.7078C68.45 25.7078 68.0799 19.5826 68.15 15.2011C68.1951 12.6875 68.4049 12.5583 68.4049 11.7982C68.4049 11.3611 68.1201 11.063 66.975 11.063C64.3049 11.063 63.4799 13.3084 63.3549 15.8867C63.3147 16.8665 63.1603 17.8383 62.8951 18.7828C61.7799 22.7371 59.4799 25.7376 57.9799 25.7376C57.2848 25.7376 57.0951 25.0471 57.0951 24.1429C57.0951 21.2965 58.7 17.7396 58.7 14.7044C58.7 12.4739 57.7152 11.063 55.8598 11.063C53.675 11.063 50.7848 13.6462 48.05 18.4848C48.95 14.7789 49.3201 11.1922 46.655 11.1922C46.0769 11.2008 45.5092 11.3473 45 11.6194C44.829 11.6988 44.6861 11.8275 44.5898 11.9888C44.4935 12.15 44.4482 12.3364 44.46 12.5235C44.715 16.4679 41.26 26.5722 37.985 26.5722C37.39 26.5722 37.1 25.9313 37.1 24.898C37.1 22.0466 38.81 16.0257 39.67 13.2687C39.78 12.911 39.84 12.603 39.84 12.3348C39.84 11.5797 39.37 11.1922 38.305 11.1922C37.135 11.1922 35.865 11.6343 34.64 13.7754C34.21 11.8877 32.925 11.063 31.13 11.063C28.185 11.063 24.895 14.1579 23.45 18.1917C21.515 23.5767 17.615 28.7778 12.365 28.7778C7.6 28.7778 5.085 24.8384 5.085 18.6139C5.085 9.6274 11.725 2.28514 16.65 2.28514C19.005 2.28514 20.13 3.77544 20.13 6.06059C20.13 8.8276 18.575 10.1142 18.575 11.1674C18.575 11.4902 18.845 11.8082 19.38 11.8082C21.52 11.8082 24.04 9.30946 24.04 5.90162C24.04 2.49378 21.255 0 16.33 0C8.19 0 0 8.13706 0 18.5643C0 26.8603 4.12 31.8627 11.245 31.8627C16.105 31.8627 20.35 28.1072 22.64 23.7257C22.9 27.3571 24.56 29.2547 27.09 29.2547C29.34 29.2547 31.16 27.9234 32.55 25.5836C33.085 28.0326 34.505 29.2299 36.35 29.2299C38.465 29.2299 40.235 27.8985 41.92 25.4246C41.895 27.367 42.34 29.1951 44.035 29.1951C44.835 29.1951 45.79 29.0113 45.96 28.3158C47.745 20.9835 52.1549 14.9975 53.5049 14.9975C53.9049 14.9975 54.0152 15.38 54.0152 15.832C54.0152 17.8241 52.6 21.9075 52.6 24.5155C52.6 27.3322 53.8049 29.1951 56.2951 29.1951C59.0549 29.1951 61.8598 25.837 63.7299 20.9289C64.3152 25.514 65.5799 29.215 67.5598 29.215C69.9902 29.215 74.3049 24.133 76.9201 18.753C77.9451 18.8822 79.4848 18.8474 80.9652 17.8092C80.3348 19.3939 79.9652 21.1276 79.9652 22.8613C79.9652 27.8538 82.3652 29.2547 84.4299 29.2547C86.675 29.2547 88.4951 27.9234 89.8902 25.5836C90.35 27.6949 91.525 29.2249 93.6848 29.2249C97.0652 29.2249 100 25.7923 100 22.9755C100 22.2304 99.6799 21.7783 99.3049 21.7783ZM29.15 26.4877C27.785 26.4877 27.25 25.1216 27.25 23.0849C27.25 19.5478 29.685 13.6413 32.26 13.6413C33.385 13.6413 33.81 14.9577 33.81 16.5673C33.81 20.1589 31.495 26.4877 29.15 26.4877ZM75.9049 15.9314C75.0902 14.9676 74.7951 13.6562 74.7951 12.4888C74.7951 11.0481 75.325 9.83103 75.9598 9.83103C76.5951 9.83103 76.7902 10.452 76.7902 11.3164C76.7902 12.762 76.2701 14.8732 75.9049 15.9314ZM86.4902 26.4877C85.125 26.4877 84.5902 24.9179 84.5902 23.0849C84.5902 19.6721 87.025 13.6413 89.6201 13.6413C90.7451 13.6413 91.1451 14.9478 91.1451 16.5673C91.1451 20.1589 88.8701 26.4877 86.4902 26.4877Z" fill="url(#paint0_linear_1_3292)"/>
</g>
<defs>
<linearGradient id="paint0_linear_1_3292" x1="9.55882" y1="3.73254e-06" x2="100" y2="25.7353" gradientUnits="userSpaceOnUse">
<stop stop-color="#00BBC6"/>
<stop offset="0.489354" stop-color="#355AE4"/>
<stop offset="1" stop-color="#7225E3"/>
</linearGradient>
<clipPath id="clip0_1_3292">
<rect width="100" height="31.8627" fill="white"/>
</clipPath>
</defs>
</svg>

<svg xmlns="http://www.w3.org/2000/svg" width="200" height="64" fill="none" viewBox="0 0 100 32"><g clip-path="url(#a)"><path fill="url(#b)" d="M99.305 21.778c-.17 0-.325.11-.405.338-1.025 2.906-2.41 4.635-3.55 4.635-.655 0-.92-.725-.92-1.863 0-2.846 1.715-8.882 2.58-11.634.1-.333.165-.631.165-.884 0-.8-.44-1.193-1.53-1.193-1.175 0-2.44.457-3.67 2.598-.425-1.887-1.71-2.712-3.505-2.712-2.075 0-4.08 1.326-5.73 3.477-1.65 2.151-3.59 2.857-5.05 2.51 1.05-2.554 1.44-4.462 1.44-5.878 0-2.22-1.105-3.562-2.89-3.562-2.715 0-4.28 2.574-4.28 5.281 0 2.091.955 4.243 3.055 5.286-1.76 3.954-4.33 7.53-5.305 7.53-1.26 0-1.63-6.124-1.56-10.506.045-2.514.255-2.643.255-3.403 0-.437-.285-.735-1.43-.735-2.67 0-3.495 2.245-3.62 4.824-.04.98-.195 1.951-.46 2.896-1.115 3.954-3.415 6.955-4.915 6.955-.695 0-.885-.69-.885-1.595 0-2.846 1.605-6.403 1.605-9.439 0-2.23-.985-3.641-2.84-3.641-2.185 0-5.075 2.583-7.81 7.422.9-3.706 1.27-7.293-1.395-7.293A3.627 3.627 0 0 0 45 11.62a.937.937 0 0 0-.54.905c.255 3.944-3.2 14.048-6.475 14.048-.595 0-.885-.64-.885-1.674 0-2.851 1.71-8.872 2.57-11.63.11-.357.17-.665.17-.933 0-.755-.47-1.143-1.535-1.143-1.17 0-2.44.442-3.665 2.583-.43-1.887-1.715-2.712-3.51-2.712-2.945 0-6.235 3.095-7.68 7.129-1.935 5.385-5.835 10.586-11.085 10.586-4.765 0-7.28-3.94-7.28-10.164 0-8.987 6.64-16.329 11.565-16.329 2.355 0 3.48 1.49 3.48 3.776 0 2.767-1.555 4.053-1.555 5.106 0 .323.27.641.805.641 2.14 0 4.66-2.499 4.66-5.906C24.04 2.494 21.255 0 16.33 0 8.19 0 0 8.137 0 18.564c0 8.296 4.12 13.299 11.245 13.299 4.86 0 9.105-3.756 11.395-8.137.26 3.631 1.92 5.529 4.45 5.529 2.25 0 4.07-1.332 5.46-3.671.535 2.449 1.955 3.646 3.8 3.646 2.115 0 3.885-1.332 5.57-3.805-.025 1.942.42 3.77 2.115 3.77.8 0 1.755-.184 1.925-.88 1.785-7.332 6.195-13.318 7.545-13.318.4 0 .51.383.51.835 0 1.992-1.415 6.075-1.415 8.683 0 2.817 1.205 4.68 3.695 4.68 2.76 0 5.565-3.358 7.435-8.266.585 4.585 1.85 8.286 3.83 8.286 2.43 0 6.745-5.082 9.36-10.462 1.025.13 2.565.094 4.045-.944-.63 1.585-1 3.319-1 5.052 0 4.993 2.4 6.394 4.465 6.394 2.245 0 4.065-1.332 5.46-3.671.46 2.11 1.635 3.64 3.795 3.64 3.38 0 6.315-3.432 6.315-6.248 0-.746-.32-1.198-.695-1.198Zm-70.155 4.71c-1.365 0-1.9-1.366-1.9-3.403 0-3.537 2.435-9.444 5.01-9.444 1.125 0 1.55 1.317 1.55 2.926 0 3.592-2.315 9.92-4.66 9.92ZM75.905 15.93c-.815-.963-1.11-2.275-1.11-3.442 0-1.44.53-2.658 1.165-2.658s.83.621.83 1.485c0 1.446-.52 3.557-.885 4.615ZM86.49 26.488c-1.365 0-1.9-1.57-1.9-3.403 0-3.413 2.435-9.444 5.03-9.444 1.125 0 1.525 1.307 1.525 2.926 0 3.592-2.275 9.92-4.655 9.92Z"/></g><defs><linearGradient id="b" x1="9.559" x2="100" y1="0" y2="25.735" gradientUnits="userSpaceOnUse"><stop stop-color="#00BBC6"/><stop offset=".489" stop-color="#355AE4"/><stop offset="1" stop-color="#7225E3"/></linearGradient><clipPath id="a"><path fill="#fff" d="M0 0h100v31.863H0z"/></clipPath></defs></svg>
